icc/.local/share/icc/LG.cal
CAL    

DESCRIPTOR "Argyll Device Calibration Curves"
ORIGINATOR "Argyll dispcal"
CREATED "Sun Dec 10 08:40:09 2023"
DEVICE_CLASS "DISPLAY"
COLOR_REP "RGB"
VIDEO_LUT_CALIBRATION_POSSIBLE "YES"
TV_OUTPUT_ENCODING "NO"
NATIVE_TARGET_WHITE ""
TARGET_WHITE_XYZ "77.252236 97.593271 86.200485"
TARGET_GAMMA "2.400000"
DEGREE_OF_BLACK_OUTPUT_OFFSET "1.000000"
BLACK_POINT_CORRECTION "0.700244"
BLACK_NEUTRAL_BLEND_RATE "4.000000"
QUALITY "medium"

NUMBER_OF_FIELDS 4
BEGIN_DATA_FORMAT
RGB_I RGB_R RGB_G RGB_B 
END_DATA_FORMAT

NUMBER_OF_SETS 256
BEGIN_DATA
0.00000 0.000973594 0.00000 0.00000 
0.00392157 0.00202042 0.00000 0.00000 
0.00784314 0.00309127 0.00000 0.00000 
0.0117647 0.00418699 0.00000 0.00000 
0.0156863 0.00530844 0.00000 0.00000 
0.0196078 0.00645654 0.00132807 0.00000 
0.0235294 0.00763226 0.00274553 0.00000 
0.0274510 0.00883660 0.00419211 0.00000 
0.0313725 0.0100706 0.00566869 0.000369402 
0.0352941 0.0113354 0.00717625 0.00141153 
0.0392157 0.0126322 0.00871574 0.00248500 
0.0431373 0.0139622 0.0102882 0.00359123 
0.0470588 0.0153266 0.0118947 0.00473175 
0.0509804 0.0167269 0.0135364 0.00590818 
0.0549020 0.0181645 0.0152144 0.00712224 
0.0588235 0.0196408 0.0169299 0.00837576 
0.0627451 0.0211575 0.0186843 0.00967071 
0.0666667 0.0227162 0.0204788 0.0110092 
0.0705882 0.0243187 0.0223148 0.0123934 
0.0745098 0.0259670 0.0241939 0.0138257 
0.0784314 0.0276629 0.0261175 0.0153087 
0.0823529 0.0294085 0.0280872 0.0168451 
0.0862745 0.0312062 0.0301042 0.0184379 
0.0901961 0.0330582 0.0321687 0.0200902 
0.0941176 0.0349670 0.0342812 0.0218055 
0.0980392 0.0369341 0.0364421 0.0235873 
0.101961 0.0389599 0.0386522 0.0254396 
0.105882 0.0410447 0.0409129 0.0273666 
0.109804 0.0431893 0.0432247 0.0293708 
0.113725 0.0453948 0.0455883 0.0314512 
0.117647 0.0476625 0.0480044 0.0336063 
0.121569 0.0499915 0.0504732 0.0358340 
0.125490 0.0523803 0.0529949 0.0381334 
0.129412 0.0548268 0.0555692 0.0405029 
0.133333 0.0573293 0.0581931 0.0429401 
0.137255 0.0598857 0.0608654 0.0454439 
0.141176 0.0624932 0.0635854 0.0480118 
0.145098 0.0651473 0.0663510 0.0506384 
0.149020 0.0678424 0.0691632 0.0533207 
0.152941 0.0705764 0.0720236 0.0560540 
0.156863 0.0733473 0.0749317 0.0588333 
0.160784 0.0761556 0.0778821 0.0616529 
0.164706 0.0790005 0.0808760 0.0645101 
0.168627 0.0818804 0.0839120 0.0674077 
0.172549 0.0847936 0.0869910 0.0703492 
0.176471 0.0877389 0.0901089 0.0733413 
0.180392 0.0907102 0.0932602 0.0763801 
0.184314 0.0937100 0.0964465 0.0794708 
0.188235 0.0967367 0.0996647 0.0826142 
0.192157 0.0997894 0.102911 0.0858159 
0.196078 0.102872 0.106188 0.0890780 
0.200000 0.105982 0.109494 0.0923912 
0.203922 0.109115 0.112819 0.0957607 
0.207843 0.112271 0.116165 0.0991830 
0.211765 0.115452 0.119536 0.102654 
0.215686 0.118649 0.122933 0.106172 
0.219608 0.121864 0.126350 0.109729 
0.223529 0.125099 0.129784 0.113300 
0.227451 0.128360 0.133246 0.116886 
0.231373 0.131645 0.136738 0.120483 
0.235294 0.134946 0.140261 0.124094 
0.239216 0.138273 0.143807 0.127699 
0.243137 0.141625 0.147363 0.131304 
0.247059 0.145004 0.150933 0.134910 
0.250980 0.148416 0.154532 0.138522 
0.254902 0.151849 0.158157 0.142154 
0.258824 0.155298 0.161810 0.145789 
0.262745 0.158775 0.165494 0.149422 
0.266667 0.162280 0.169199 0.153081 
0.270588 0.165812 0.172916 0.156760 
0.274510 0.169378 0.176638 0.160460 
0.278431 0.172976 0.180370 0.164193 
0.282353 0.176593 0.184125 0.167953 
0.286275 0.180222 0.187896 0.171723 
0.290196 0.183854 0.191681 0.175490 
0.294118 0.187507 0.195481 0.179265 
0.298039 0.191177 0.199297 0.183063 
0.301961 0.194854 0.203119 0.186866 
0.305882 0.198540 0.206932 0.190665 
0.309804 0.202237 0.210740 0.194457 
0.313725 0.205956 0.214543 0.198253 
0.317647 0.209675 0.218340 0.202044 
0.321569 0.213394 0.222149 0.205808 
0.325490 0.217120 0.225977 0.209551 
0.329412 0.220847 0.229817 0.213278 
0.333333 0.224578 0.233655 0.216987 
0.337255 0.228338 0.237499 0.220715 
0.341176 0.232122 0.241346 0.224472 
0.345098 0.235921 0.245196 0.228248 
0.349020 0.239732 0.249061 0.232030 
0.352941 0.243558 0.252946 0.235827 
0.356863 0.247399 0.256836 0.239637 
0.360784 0.251256 0.260724 0.243461 
0.364706 0.255143 0.264607 0.247320 
0.368627 0.259044 0.268498 0.251211 
0.372549 0.262942 0.272393 0.255119 
0.376471 0.266835 0.276281 0.259028 
0.380392 0.270724 0.280156 0.262930 
0.384314 0.274618 0.284036 0.266837 
0.388235 0.278512 0.287942 0.270741 
0.392157 0.282397 0.291874 0.274628 
0.396078 0.286265 0.295824 0.278489 
0.400000 0.290151 0.299789 0.282345 
0.403922 0.294075 0.303761 0.286239 
0.407843 0.298032 0.307751 0.290174 
0.411765 0.302011 0.311768 0.294132 
0.415686 0.306008 0.315807 0.298117 
0.419608 0.310017 0.319869 0.302115 
0.423529 0.314055 0.323954 0.306134 
0.427451 0.318108 0.328064 0.310192 
0.431373 0.322176 0.332209 0.314278 
0.435294 0.326253 0.336371 0.318396 
0.439216 0.330337 0.340530 0.322536 
0.443137 0.334434 0.344682 0.326699 
0.447059 0.338556 0.348828 0.330907 
0.450980 0.342684 0.352973 0.335137 
0.454902 0.346802 0.357124 0.339357 
0.458824 0.350911 0.361280 0.343556 
0.462745 0.355005 0.365461 0.347735 
0.466667 0.359095 0.369669 0.351895 
0.470588 0.363176 0.373905 0.356049 
0.474510 0.367252 0.378158 0.360191 
0.478431 0.371342 0.382424 0.364360 
0.482353 0.375437 0.386687 0.368552 
0.486275 0.379542 0.390938 0.372770 
0.490196 0.383647 0.395174 0.376997 
0.494118 0.387755 0.399426 0.381220 
0.498039 0.391852 0.403730 0.385432 
0.501961 0.395923 0.408085 0.389611 
0.505882 0.399963 0.412479 0.393734 
0.509804 0.404025 0.416902 0.397837 
0.513725 0.408151 0.421352 0.401996 
0.517647 0.412338 0.425833 0.406214 
0.521569 0.416567 0.430331 0.410464 
0.525490 0.420821 0.434818 0.414731 
0.529412 0.425092 0.439284 0.419018 
0.533333 0.429382 0.443729 0.423331 
0.537255 0.433694 0.448179 0.427672 
0.541176 0.438012 0.452633 0.432021 
0.545098 0.442325 0.457073 0.436367 
0.549020 0.446617 0.461495 0.440690 
0.552941 0.450919 0.465919 0.445030 
0.556863 0.455227 0.470338 0.449404 
0.560784 0.459527 0.474760 0.453793 
0.564706 0.463814 0.479186 0.458171 
0.568627 0.468106 0.483615 0.462560 
0.572549 0.472394 0.488047 0.466961 
0.576471 0.476685 0.492483 0.471370 
0.580392 0.480980 0.496925 0.475781 
0.584314 0.485285 0.501401 0.480189 
0.588235 0.489601 0.505900 0.484596 
0.592157 0.493931 0.510398 0.489003 
0.596078 0.498276 0.514894 0.493411 
0.600000 0.502666 0.519387 0.497847 
0.603922 0.507108 0.523876 0.502334 
0.607843 0.511574 0.528362 0.506836 
0.611765 0.516061 0.532838 0.511338 
0.615686 0.520569 0.537318 0.515839 
0.619608 0.525093 0.541787 0.520334 
0.623529 0.529630 0.546246 0.524828 
0.627451 0.534174 0.550722 0.529331 
0.631373 0.538729 0.555212 0.533843 
0.635294 0.543289 0.559700 0.538368 
0.639216 0.547848 0.564178 0.542879 
0.643137 0.552436 0.568639 0.547416 
0.647059 0.557052 0.573108 0.551996 
0.650980 0.561682 0.577608 0.556603 
0.654902 0.566318 0.582134 0.561209 
0.658824 0.570937 0.586677 0.565797 
0.662745 0.575565 0.591242 0.570362 
0.666667 0.580247 0.595838 0.574984 
0.670588 0.584970 0.600459 0.579653 
0.674510 0.589707 0.605078 0.584340 
0.678431 0.594460 0.609690 0.589039 
0.682353 0.599230 0.614294 0.593755 
0.686275 0.604017 0.618908 0.598494 
0.690196 0.608799 0.623541 0.603231 
0.694118 0.613570 0.628186 0.607943 
0.698039 0.618322 0.632831 0.612622 
0.701961 0.623077 0.637469 0.617290 
0.705882 0.627833 0.642079 0.621979 
0.709804 0.632586 0.646658 0.626688 
0.713725 0.637335 0.651193 0.631390 
0.717647 0.642074 0.655675 0.636086 
0.721569 0.646797 0.660100 0.640758 
0.725490 0.651489 0.664473 0.645415 
0.729412 0.656117 0.668857 0.650035 
0.733333 0.660665 0.673309 0.654582 
0.737255 0.665132 0.677831 0.659024 
0.741176 0.669559 0.682421 0.663361 
0.745098 0.674067 0.687070 0.667690 
0.749020 0.678666 0.691768 0.672139 
0.752941 0.683352 0.696495 0.676717 
0.756863 0.688100 0.701243 0.681409 
0.760784 0.692879 0.705999 0.686169 
0.764706 0.697668 0.710768 0.690959 
0.768627 0.702460 0.715550 0.695768 
0.772549 0.707244 0.720311 0.700600 
0.776471 0.712031 0.725043 0.705437 
0.780392 0.716829 0.729752 0.710275 
0.784314 0.721627 0.734460 0.715109 
0.788235 0.726419 0.739158 0.719921 
0.792157 0.731209 0.743852 0.724704 
0.796078 0.736021 0.748547 0.729469 
0.800000 0.740843 0.753257 0.734246 
0.803922 0.745683 0.757971 0.739019 
0.807843 0.750545 0.762686 0.743804 
0.811765 0.755431 0.767398 0.748611 
0.815686 0.760316 0.772102 0.753461 
0.819608 0.765200 0.776816 0.758329 
0.823529 0.770073 0.781519 0.763215 
0.827451 0.774941 0.786201 0.768104 
0.831373 0.779804 0.790858 0.773019 
0.835294 0.784644 0.795480 0.777963 
0.839216 0.789457 0.800065 0.782885 
0.843137 0.794227 0.804668 0.787792 
0.847059 0.798941 0.809313 0.792667 
0.850980 0.803637 0.813994 0.797469 
0.854902 0.808408 0.818702 0.802242 
0.858824 0.813248 0.823419 0.807103 
0.862745 0.818128 0.828153 0.812037 
0.866667 0.823032 0.832913 0.817013 
0.870588 0.827955 0.837692 0.822014 
0.874510 0.832909 0.842474 0.827021 
0.878431 0.837892 0.847259 0.832046 
0.882353 0.842886 0.852027 0.837091 
0.886275 0.847892 0.856766 0.842132 
0.890196 0.852896 0.861503 0.847172 
0.894118 0.857871 0.866265 0.852198 
0.898039 0.862871 0.871033 0.857176 
0.901961 0.867921 0.875803 0.862180 
0.905882 0.872993 0.880565 0.867238 
0.909804 0.878085 0.885306 0.872312 
0.913725 0.883193 0.890012 0.877411 
0.917647 0.888301 0.894710 0.882511 
0.921569 0.893418 0.899409 0.887589 
0.925490 0.898571 0.904101 0.892651 
0.929412 0.903743 0.908775 0.897746 
0.933333 0.908916 0.913446 0.902850 
0.937255 0.914102 0.918135 0.907943 
0.941176 0.919324 0.922837 0.913042 
0.945098 0.924550 0.927563 0.918196 
0.949020 0.929794 0.932323 0.923387 
0.952941 0.935052 0.937120 0.928647 
0.956863 0.940336 0.941969 0.933986 
0.960784 0.945638 0.946876 0.939422 
0.964706 0.950967 0.951850 0.944956 
0.968627 0.956320 0.956894 0.950604 
0.972549 0.961695 0.962008 0.956379 
0.976471 0.967098 0.967195 0.962273 
0.980392 0.972525 0.972460 0.968282 
0.984314 0.977975 0.977804 0.974400 
0.988235 0.983447 0.983228 0.980628 
0.992157 0.988942 0.988734 0.986968 
0.996078 0.994459 0.994324 0.993424 
1.000000 1.000000 1.000000 1.000000 
END_DATA
CAL    

DESCRIPTOR "Argyll Calibration options and model"
ORIGINATOR "Argyll dispcal"
CREATED "Sun Dec 10 08:40:09 202"

NUMBER_OF_FIELDS 3
BEGIN_DATA_FORMAT
R_P G_P B_P 
END_DATA_FORMAT

NUMBER_OF_SETS 32
BEGIN_DATA
-0.00149669 -0.000437433 -8.85767e-06 
1.001497 1.000437 1.000009 
1.678394 1.802822 1.682416 
0.662772 0.650050 0.614015 
0.0478576 0.0931257 0.0765828 
0.118123 0.0979387 0.0787034 
0.143818 0.0796861 0.107752 
0.0754480 0.0743418 0.0688197 
0.0382923 0.0635090 0.0703574 
0.0326217 0.0695396 0.0506767 
0.0419568 0.0475377 0.0469574 
0.0475447 0.0503904 0.0427645 
0.0473395 0.0479211 0.0417973 
0.0426659 0.0416294 0.0269673 
0.0339447 0.0421829 0.0347245 
0.0273111 0.0393802 0.0345998 
0.0233164 0.0369576 0.0327203 
0.0223175 0.0348052 0.0312882 
0.0225715 0.0322076 0.0290209 
0.0242877 0.0295198 0.0274985 
0.0221870 0.0310518 0.0256721 
0.0226182 0.0313155 0.0222514 
0.0189491 0.0227312 0.0238212 
0.0179829 0.0209871 0.0188586 
0.0166761 0.0258387 0.0200776 
0.0153263 0.0229564 0.0204606 
0.0156937 0.0216066 0.0187430 
0.0152600 0.0209708 0.0185620 
0.0137880 0.0201713 0.0172849 
0.0114753 0.0186815 0.0170441 
0.0119848 0.0191070 0.0164659 
0.0111499 0.0190900 0.0154998 
END_DATA
